X:58
T: Die Koenigskinder
N: Q0020A
O: Mitteleuropa, Deutschland (BRD) , Westfalen
R: Ballade, Liebe, Trennung, Tod
M: 4/4
L: 1/8
K: F
C | CAAAAGGG | GFF2z3
C | CBBBBAcA | A2G2z3
C | CccccBBB | A2f2cB
AG | GFFFAGGF | F2z2
G3B | AfcAAGGF | F2z6

